!!!OTL: MIT FROMMEN WUENSCHEN GRUESS ICH IHN
!!!ARE: Europa, Mitteleuropa, Deutschland
!!!SCT: F0287
!!!YEM: Copyright 1995, estate of Helmut Schaffrath.
**kern
*ICvox
*Ivox
*M4/4
*k[]
*C:
{4G
=1
4e
4d
4c
4B
=2
4.A
8A
4A}
{4d
=3
4f
4e
4d
4c
=4
4B
2r}
{4B
=5
4.d
8c
4B
4B
=6
4c
4d
4e}
{4c
=7
4.d
8d
4c
4B
=8
2c
4r}
==
!!!AGN: Jugend - Lied, religioes, Neujahr
!!!ONB: ESAC (Essen Associative Code) Database: FINK
!!!AMT: simple quadruple
!!!AIN: vox
!!!EED: Helmut Schaffrath
!!!EEV: 1.0
*-
